!! 00000] TT[WS
!!!OTL: Li bu kai
!!!ARE: Asia, China, Shanxi Xingxian
!! Ethnic Group: Han
!! WII, 89 (1)
!!!SCT: J0530
!!!YEM: Copyright 1995, estate of Helmut Schaffrath.
**kern
*ICvox
*Ivox
*M2/4
*k[f#]
*G:
{8dd
8ee
4a
=1
8dd
8ee
4a
=2
8dd
16b
16dd
8ee
8gg
=3
8a
8g
4e}
=4
{8a
16a
16b
4dd
=5
8e
8d
4c
=6
8e
8c
16e
16d
16c
16e
=7
2d}
==
!!!AGN: Xiaodiao. Qingge, Sichun
!!!ONB: ESAC (Essen Associative Code) Database: CHINA
!!!AMT: simple duple
!!!AIN: vox
!!!EED: Helmut Schaffrath
!!!EEV: 1.0
*-
